X:12132
T:O Shepherd, O Shepherd, Will You Come Home
S:Vaughan Wiliiams and Lloyd, Penguin Book of English Folk Songs
M:6/8
L:1/8
K:GDor
% dorian/minor hexatonic
B|BBB Bcd|c2B A2
c|B2G GAG|F2D D2
B|BBB BAB|c2c d2
c|BAG AGF|G3  G2|]
